images/history.svg

<svg xmlns="http://www.w3.org/2000/svg" viewBox="0 0 24 24"><path d="M13.5,8H12V13L16.28,15.54L17,14.33L13.5,12.25V8M13,3A9,9 0 0,0 4,12H1L4.96,16.03L9,12H6A7,7 0 0,1 13,5A7,7 0 0,1 20,12A7,7 0 0,1 13,19C11.07,19 9.32,18.21 8.06,16.94L6.64,18.36C8.27,20 10.5,21 13,21A9,9 0 0,0 22,12A9,9 0 0,0 13,3" /></svg>

<?xml version="1.0" encoding="UTF-8"?>
<svg id="Layer_1" data-name="Layer 1" xmlns="http://www.w3.org/2000/svg" version="1.1" viewBox="0 0 24 24">
  <defs>
    <style>
      .cls-1 {
        fill: #2d2827;
        stroke-width: 0px;
      }
    </style>
  </defs>
  <path class="cls-1" d="M13.5,8h-1.5v5l4.3,2.5.7-1.2-3.5-2.1v-4.2M13,3c-5,0-9,4-9,9H1l4,4,4-4h-3c0-3.9,3.1-7,7-7s7,3.1,7,7-3.1,7-7,7-3.7-.8-4.9-2.1l-1.4,1.4c1.6,1.6,3.9,2.6,6.4,2.6,5,0,9-4,9-9S18,3,13,3"/>
</svg>
